X: 313
M: 2/2
L: 1/8
K: G
!segno!GABc |\
d2g2 !+!f2e2 | d4 C2e2 | B,2d2 cBAG | !+!F2D2 GABc |\
d2g2 !+!f2e2 | d4 dcBA | cBAG BAGF | HG4 |]
"2.F."Adcd |\
eaga eaga | !+!f4 bagf | ed^cB AB^cA | d4 !segno!y|]

